X: 14206
T: Fuck The Tories
R: reel
M: 4/4
K: Gmajor
GABc|d2 de dcBA|GABG D2 EF|G2 GA BABc|d2 A2 dcBA|
G2 E2 DEGB|A2 A2 G2 E2|DEGB A2 A2|G4:|
Gc2-|c3 dcd cBAB|cd B2 G2 c2-|c3 d cdcB|A2 D2 BcBA|
G2 E2 DEGB|A2 A2 G2 E2|DEGB A2 A2|G3:|

